svgs/sharp-light/faucet-drip.svg

<svg xmlns="http://www.w3.org/2000/svg" viewBox="0 0 512 512"><!--! Font Awesome Pro 6.6.0 by @fontawesome - https://fontawesome.com License - https://fontawesome.com/license (Commercial License) Copyright 2024 Fonticons, Inc. --><path d="M240 16l0-16L208 0l0 16 0 16L80 32 64 32l0 32 16 0 128 0 0 48-32 0-6.6 0-4.7 4.7L121.4 160 16 160 0 160l0 32 16 0 112 0 6.6 0 4.7-4.7L182.6 144l25.4 0 32 0 25.4 0 43.3 43.3 4.7 4.7 6.6 0 48 0c61.9 0 112 50.1 112 112l0 16-64 0 0-16c0-26.5-21.5-48-48-48l-60.8 0-9.2 0-4.6 8c-13.9 24-39.7 40-69.3 40s-55.5-16.1-69.3-40l-4.6-8-9.2 0L16 256 0 256l0 32 16 0 116.1 0c20.2 29 53.8 48 91.9 48s71.7-19 91.9-48l52.1 0c8.8 0 16 7.2 16 16l0 32 0 16 16 0 96 0 16 0 0-16 0-32c0-79.5-64.5-144-144-144l-41.4 0-43.3-43.3-4.7-4.7-6.6 0-32 0 0-48 128 0 16 0 0-32-16 0L240 32l0-16zM448 437.3l12.8 17.1c2.1 2.8 3.2 6.1 3.2 9.6c0 8.8-7.2 16-16 16s-16-7.2-16-16c0-3.5 1.1-6.8 3.2-9.6L448 437.3zm-20-26.7l-18.4 24.5c-6.2 8.3-9.6 18.4-9.6 28.8c0 26.5 21.5 48 48 48s48-21.5 48-48c0-10.4-3.4-20.5-9.6-28.8L468 410.7 448 384l-20 26.7z"/></svg>

<svg xmlns="http://www.w3.org/2000/svg" viewBox="0 0 512 512"><!--! Font Awesome Pro 6.5.2 by @fontawesome - https://fontawesome.com License - https://fontawesome.com/license (Commercial License) Copyright 2024 Fonticons, Inc. --><path d="M240 16V0H208V16 32H80 64V64H80 208v48H176h-6.6l-4.7 4.7L121.4 160H16 0v32H16 128h6.6l4.7-4.7L182.6 144H208h32 25.4l43.3 43.3 4.7 4.7H320h48c61.9 0 112 50.1 112 112v16H416V304c0-26.5-21.5-48-48-48H307.2h-9.2l-4.6 8c-13.9 24-39.7 40-69.3 40s-55.5-16.1-69.3-40l-4.6-8h-9.2H16 0v32H16 132.1c20.2 29 53.8 48 91.9 48s71.7-19 91.9-48H368c8.8 0 16 7.2 16 16v32 16h16 96 16V336 304c0-79.5-64.5-144-144-144H326.6l-43.3-43.3-4.7-4.7H272 240V64H368h16V32H368 240V16zM448 437.3l12.8 17.1c2.1 2.8 3.2 6.1 3.2 9.6c0 8.8-7.2 16-16 16s-16-7.2-16-16c0-3.5 1.1-6.8 3.2-9.6L448 437.3zm-20-26.7l-18.4 24.5c-6.2 8.3-9.6 18.4-9.6 28.8c0 26.5 21.5 48 48 48s48-21.5 48-48c0-10.4-3.4-20.5-9.6-28.8L468 410.7 448 384l-20 26.7z"/></svg>
